korla/apps/scalable/com.github.zren.batterytime.svg

<svg xmlns="http://www.w3.org/2000/svg" width="48" height="48" version="1">
 <path opacity=".2" d="m8 41v2c0 1.108 0.892 2 2 2h28c1.108 0 2-0.892 2-2v-2c0 1.108-0.892 2-2 2h-28c-1.108 0-2-0.892-2-2z"/>
 <path fill="#4f4f4f" transform="matrix(0,-1,-1,0,0,0)" d="m-42-40h32c1.108 0 2 0.892 2 2v28c0 1.108-0.892 2-2 2h-32c-1.108 0-2-0.892-2-2v-28c0-1.108 0.892-2 2-2z"/>
 <rect style="fill:#8e8e8e" width="20" height="4" x="14" y="4"/>
 <rect fill="#c0f957" width="26" height="8" x="11" y="31"/>
 <rect style="opacity:0.4" width="26" height="8" x="11" y="21"/>
 <rect style="opacity:0.4" width="26" height="8" x="11" y="11"/>
 <path fill="#fff" opacity=".2" d="m14 4v1h20v-1h-20z"/>
 <circle style="opacity:0.2" cx="36" cy="37" r="11"/>
 <circle style="fill:#cd4242" cx="36" cy="36" r="11"/>
 <path style="fill:#ffffff" d="M 36 29 A 7 7 0 0 0 29 36 A 7 7 0 0 0 36 43 A 7 7 0 0 0 43 36 A 7 7 0 0 0 36 29 z M 36 31 A 5 5 0 0 1 41 36 A 5 5 0 0 1 36 41 A 5 5 0 0 1 31 36 A 5 5 0 0 1 36 31 z M 35 32 L 35 35 L 35 36 L 35 37 L 40 37 L 40 35 L 37 35 L 37 32 L 35 32 z"/>
</svg>

<svg width="48" height="48" xmlns="http://www.w3.org/2000/svg">
 <path d="m8 41v2c0 1.108.892 2 2 2h28c1.108 0 2-.892 2-2v-2c0 1.108-.892 2-2 2h-28c-1.108 0-2-.892-2-2z" opacity=".2"/>
 <path transform="matrix(0 -1 -1 0 0 0)" d="m-42-40h32c1.108 0 2 .892 2 2v28c0 1.108-.892 2-2 2h-32c-1.108 0-2-.892-2-2v-28c0-1.108.892-2 2-2z" fill="#4f4f4f"/>
 <path d="m14 4h20v4h-20z" fill="#8e8e8e"/>
 <path d="m11 31h26v8h-26z" fill="#c0f957"/>
 <path d="m11 21h26v8h-26z" opacity=".4"/>
 <path d="m11 11h26v8h-26z" opacity=".4"/>
 <path d="m14 4v1h20v-1z" fill="#fff" opacity=".2"/>
 <circle cx="36" cy="37" r="11" opacity=".2"/>
 <circle cx="36" cy="36" r="11" fill="#cd4242"/>
 <path d="m36 29a7 7 0 0 0-7 7 7 7 0 0 0 7 7 7 7 0 0 0 7-7 7 7 0 0 0-7-7zm0 2a5 5 0 0 1 5 5 5 5 0 0 1-5 5 5 5 0 0 1-5-5 5 5 0 0 1 5-5zm-1 1v5h5v-2h-3v-3z" fill="#fff"/>
</svg>
